packages/ui/public/images/midas-light.svg

<!DOCTYPE svg  PUBLIC '-//W3C//DTD SVG 1.1//EN'  'http://www.w3.org/Graphics/SVG/1.1/DTD/svg11.dtd'>
<svg clip-rule="evenodd" fill-rule="evenodd" stroke-linejoin="round" stroke-miterlimit="2" version="1.1" viewBox="0 0 153 176" xml:space="preserve" xmlns="http://www.w3.org/2000/svg">
    <g fill="#282828" fill-rule="nonzero">
        <path d="m76.38 175.5c-4.16-1.09-5.49-2.83-5.49-7.21v-67.9c0-1.97 0-1.97-1.99-1.97-3.29 0-6.57 0.06-9.86-0.03-1.29-0.03-1.61 0.4-1.6 1.64 0.04 14.56 0.03 29.12 0.02 43.69 0 3.51-2.45 5.95-5.87 5.89-2.95-0.05-5.35-2.49-5.44-5.57-0.05-1.66-0.01-3.33-0.01-4.99v-45.43c0-4.33 2.2-6.53 6.53-6.53h48.05c4.14 0 6.41 2.26 6.41 6.4v50.3c0 2.44-1.1 4.26-3.29 5.3-2.1 1-4.15 0.72-5.96-0.75-1.49-1.2-2.08-2.83-2.07-4.73 0.01-14.31 0.01-28.63 0.01-42.94 0-0.37-0.02-0.75 0-1.12 0.06-0.79-0.26-1.12-1.08-1.12-3.74 0.02-7.49 0.02-11.23 0-0.8 0-1.16 0.3-1.12 1.1 0.02 0.41 0 0.83 0 1.25 0 22.59-0.01 45.18 0.01 67.78 0 2.84-0.8 5.18-3.59 6.41-0.6 0.26-1.27 0.37-1.91 0.55-0.19-0.02-0.36-0.02-0.52-0.02z"/>
        <path d="m0.25 57.42c0.77-3.16 2-6.08 4.3-8.46 3.17-3.27 7.07-5.01 11.59-5.02 40.31-0.04 80.61-0.04 120.9-0.01 8.22 0.01 15.27 6.42 15.97 14.33 0.75 8.56-4.76 16.02-13.1 17.54-5.26 0.96-9.89-0.51-13.8-4.13-2.42-2.24-2.58-5.5-0.5-7.94 1.93-2.26 5.39-2.56 7.88-0.59 1.15 0.91 2.3 1.58 3.83 1.51 2.25-0.11 4.13-1.81 4.37-4.04 0.25-2.42-1.18-4.58-3.44-5.09-0.76-0.17-1.56-0.25-2.35-0.25-39.52-0.01-79.03-0.01-118.6-0.01-1.05 0-2.08 0.08-3.05 0.52-1.75 0.79-2.73 2.16-2.79 4.09-0.06 1.92 0.74 3.41 2.48 4.27 1.69 0.84 3.42 0.78 4.94-0.4 1.34-1.04 2.68-1.95 4.48-1.9 2.28 0.07 4.43 1.41 5.19 3.47 0.83 2.25 0.52 4.33-1.21 6.11-5.58 5.76-15.09 6.2-21.36 1.03-3.12-2.58-4.89-5.92-5.81-9.79 0.01-1.75 0.01-3.49 0.01-5.24z"/>
        <path d="m76.75 65.82c11.27 0 22.54-0.01 33.81 0 2.75 0 4.81 1.38 5.62 3.71 1.27 3.62-1.16 7.28-5.05 7.61-0.33 0.03-0.66 0.02-1 0.02-22.33 0-44.66 0-66.99 0.01-2.02 0-3.81-0.5-5.1-2.12-1.44-1.81-1.77-3.83-0.76-5.96 1.03-2.16 2.76-3.27 5.16-3.27 9.61-0.01 19.21-0.01 28.82-0.01 1.83 0.01 3.66 0.01 5.49 0.01z"/>
        <path d="m3.68 16.8c0-4.12-0.01-8.23 0-12.35 0.01-2.75 1.1-3.93 3.84-3.95 8.15-0.04 16.3-0.04 24.45 0 2.69 0.01 3.96 1.24 3.97 3.91 0.06 8.28 0.04 16.55 0 24.83-0.01 1.91-0.99 3.11-2.5 3.43-1.68 0.36-3.22-0.62-3.53-2.33-0.15-0.81-0.2-1.65-0.2-2.48-0.01-6.56 0-13.13-0.01-19.7 0-1.59-0.04-1.62-1.59-1.63-1.37 0-2.75 0.07-4.11-0.01-1.15-0.07-1.51 0.32-1.5 1.48 0.05 7.11 0.03 14.22 0.03 21.33 0 1.9-0.76 2.94-2.38 3.3-1.6 0.36-3.13-0.58-3.5-2.2-0.12-0.52-0.15-1.07-0.15-1.61-0.02-6.9-0.02-13.81-0.03-20.71 0-1.57-0.03-1.59-1.62-1.59-1.37 0-2.74 0.03-4.12 0-0.75-0.01-1.16 0.2-1.15 1.05 0.04 7.23 0.03 14.47 0.1 21.7 0.02 1.94-1.13 3.39-2.96 3.44-1.79 0.05-3.02-1.25-3.02-3.2-0.02-4.22-0.02-8.47-0.02-12.71z"/>
        <path d="m108 32.98h-12.09c-0.76 0-1.5-0.07-2.2-0.36-1.43-0.6-2.12-1.96-1.71-3.45 0.16-0.56 0.39-1.1 0.65-1.61 4.21-8.35 8.44-16.69 12.64-25.04 0.63-1.24 1.45-2.12 2.95-2.09 1.45 0.02 2.23 0.89 2.82 2.09 4.2 8.45 8.43 16.88 12.63 25.33 1.46 2.93 0.2 5.05-3.1 5.11-4.2 0.07-8.39 0.02-12.59 0.02zm0.05-6.33c2.41 0 4.82-0.01 7.24 0.01 0.69 0 0.93-0.17 0.58-0.87-2.41-4.79-4.8-9.59-7.2-14.39-0.12-0.25-0.19-0.62-0.53-0.63-0.35-0.01-0.41 0.37-0.53 0.62-2.4 4.7-4.78 9.42-7.2 14.11-0.53 1.03-0.17 1.18 0.79 1.17 2.28-0.05 4.57-0.02 6.85-0.02z"/>
        <path d="m63.12 16.59v-12.6c0-1.37 0.35-2.56 1.68-3.23 1.06-0.53 2.09-0.4 3.07 0.25 6.54 4.36 13.09 8.7 19.61 13.08 2.14 1.44 2.04 3.75-0.23 5.3-4.02 2.74-8.08 5.42-12.13 8.12-2.32 1.55-4.61 3.12-6.96 4.62-2.62 1.67-4.97 0.42-5.02-2.7-0.06-4.28-0.02-8.56-0.02-12.84zm6.33-7.29c0 4.84-0.01 9.35 0.01 13.86 0 0.8 0.47 0.48 0.82 0.24 3.11-2.06 6.22-4.14 9.33-6.2 0.52-0.35 0.74-0.65 0.07-1.09-3.32-2.18-6.62-4.4-10.23-6.81z"/>
        <path d="m145.4 0.95c1.26-0.01 2.15 0.59 2.69 1.69 0.53 1.08 0.28 2.45-0.6 3.34-0.86 0.88-2.01 1.32-3.04 1.94-1.64 0.98-3.3 1.93-4.99 2.84-0.78 0.42-0.96 0.72-0.22 1.43 3.08 2.97 6.13 5.98 9.16 9.02 1.85 1.86 1.63 3.95-0.64 5.28-3.77 2.21-7.58 4.33-11.41 6.43-1.78 0.98-3.39 0.53-4.31-1.04-0.89-1.52-0.4-3.14 1.38-4.2 2.32-1.38 4.68-2.7 7.05-4 0.88-0.48 1.03-0.86 0.24-1.63-2.98-2.9-5.91-5.85-8.84-8.8-2.18-2.19-1.91-4.06 0.78-5.59 3.54-2.02 7.09-4.03 10.63-6.05 0.67-0.37 1.35-0.64 2.12-0.66z"/>
        <path d="m46.78 16.73v-12.85c0-1.85 1.08-3.09 2.79-3.2 1.87-0.12 3.08 0.89 3.33 2.78 0.04 0.29 0.03 0.58 0.03 0.87 0 8.11 0 16.22-0.01 24.33 0 0.5-0.01 1-0.11 1.49-0.34 1.64-1.67 2.68-3.2 2.55-1.68-0.14-2.75-1.3-2.76-3.11-0.02-4.28-0.01-8.57-0.01-12.85-0.02-0.01-0.04-0.01-0.06-0.01z"/>
    </g>
</svg>

<?xml version="1.0" encoding="UTF-8" standalone="no"?>
<!DOCTYPE svg PUBLIC "-//W3C//DTD SVG 1.1//EN" "http://www.w3.org/Graphics/SVG/1.1/DTD/svg11.dtd">
<svg width="100%" height="100%" viewBox="0 0 153 176" version="1.1" xmlns="http://www.w3.org/2000/svg" xmlns:xlink="http://www.w3.org/1999/xlink" xml:space="preserve" xmlns:serif="http://www.serif.com/" style="fill-rule:evenodd;clip-rule:evenodd;stroke-linejoin:round;stroke-miterlimit:2;">
    <g>
        <path d="M76.38,175.5C72.22,174.41 70.89,172.67 70.89,168.29L70.89,100.39C70.89,98.42 70.89,98.42 68.9,98.42C65.61,98.42 62.33,98.48 59.04,98.39C57.75,98.36 57.43,98.79 57.44,100.03C57.48,114.59 57.47,129.15 57.46,143.72C57.46,147.23 55.01,149.67 51.59,149.61C48.64,149.56 46.24,147.12 46.15,144.04C46.1,142.38 46.14,140.71 46.14,139.05L46.14,93.62C46.14,89.29 48.34,87.09 52.67,87.09L100.72,87.09C104.86,87.09 107.13,89.35 107.13,93.49L107.13,143.79C107.13,146.23 106.03,148.05 103.84,149.09C101.74,150.09 99.69,149.81 97.88,148.34C96.39,147.14 95.8,145.51 95.81,143.61C95.82,129.3 95.82,114.98 95.82,100.67C95.82,100.3 95.8,99.92 95.82,99.55C95.88,98.76 95.56,98.43 94.74,98.43C91,98.45 87.25,98.45 83.51,98.43C82.71,98.43 82.35,98.73 82.39,99.53C82.41,99.94 82.39,100.36 82.39,100.78C82.39,123.37 82.38,145.96 82.4,168.56C82.4,171.4 81.6,173.74 78.81,174.97C78.21,175.23 77.54,175.34 76.9,175.52C76.71,175.5 76.54,175.5 76.38,175.5Z" style="fill:rgb(40,40,40);fill-rule:nonzero;"/>
        <path d="M0.25,57.42C1.02,54.26 2.25,51.34 4.55,48.96C7.72,45.69 11.62,43.95 16.14,43.94C56.45,43.9 96.75,43.9 137.06,43.93C145.28,43.94 152.33,50.35 153.03,58.26C153.78,66.82 148.27,74.28 139.93,75.8C134.67,76.76 130.04,75.29 126.13,71.67C123.71,69.43 123.55,66.17 125.63,63.73C127.56,61.47 131.02,61.17 133.51,63.14C134.66,64.05 135.81,64.72 137.34,64.65C139.59,64.54 141.47,62.84 141.71,60.61C141.96,58.19 140.53,56.03 138.27,55.52C137.51,55.35 136.71,55.27 135.92,55.27C96.4,55.26 56.89,55.26 17.37,55.26C16.32,55.26 15.29,55.34 14.32,55.78C12.57,56.57 11.59,57.94 11.53,59.87C11.47,61.79 12.27,63.28 14.01,64.14C15.7,64.98 17.43,64.92 18.95,63.74C20.29,62.7 21.63,61.79 23.43,61.84C25.71,61.91 27.86,63.25 28.62,65.31C29.45,67.56 29.14,69.64 27.41,71.42C21.83,77.18 12.32,77.62 6.05,72.45C2.93,69.87 1.16,66.53 0.24,62.66C0.25,60.91 0.25,59.17 0.25,57.42Z" style="fill:rgb(40,40,40);fill-rule:nonzero;"/>
        <path d="M76.75,65.82C88.02,65.82 99.29,65.81 110.56,65.82C113.31,65.82 115.37,67.2 116.18,69.53C117.45,73.15 115.02,76.81 111.13,77.14C110.8,77.17 110.47,77.16 110.13,77.16C87.8,77.16 65.47,77.16 43.14,77.17C41.12,77.17 39.33,76.67 38.04,75.05C36.6,73.24 36.27,71.22 37.28,69.09C38.31,66.93 40.04,65.82 42.44,65.82C52.05,65.81 61.65,65.81 71.26,65.81C73.09,65.82 74.92,65.82 76.75,65.82Z" style="fill:rgb(40,40,40);fill-rule:nonzero;"/>
        <path d="M3.68,16.8C3.68,12.68 3.67,8.57 3.68,4.45C3.69,1.7 4.78,0.52 7.52,0.5C15.67,0.46 23.82,0.46 31.97,0.5C34.66,0.51 35.93,1.74 35.94,4.41C36,12.69 35.98,20.96 35.94,29.24C35.93,31.15 34.95,32.35 33.44,32.67C31.76,33.03 30.22,32.05 29.91,30.34C29.76,29.53 29.71,28.69 29.71,27.86C29.7,21.3 29.71,14.73 29.7,8.16C29.7,6.57 29.66,6.54 28.11,6.53C26.74,6.53 25.36,6.6 24,6.52C22.85,6.45 22.49,6.84 22.5,8C22.55,15.11 22.53,22.22 22.53,29.33C22.53,31.23 21.77,32.27 20.15,32.63C18.55,32.99 17.02,32.05 16.65,30.43C16.53,29.91 16.5,29.36 16.5,28.82C16.48,21.92 16.48,15.01 16.47,8.11C16.47,6.54 16.44,6.52 14.85,6.52C13.48,6.52 12.11,6.55 10.73,6.52C9.98,6.51 9.57,6.72 9.58,7.57C9.62,14.8 9.61,22.04 9.68,29.27C9.7,31.21 8.55,32.66 6.72,32.71C4.93,32.76 3.7,31.46 3.7,29.51C3.68,25.29 3.68,21.04 3.68,16.8Z" style="fill:rgb(40,40,40);fill-rule:nonzero;"/>
        <path d="M107.97,32.98L95.88,32.98C95.12,32.98 94.38,32.91 93.68,32.62C92.25,32.02 91.56,30.66 91.97,29.17C92.13,28.61 92.36,28.07 92.62,27.56C96.83,19.21 101.06,10.87 105.26,2.52C105.89,1.28 106.71,0.4 108.21,0.43C109.66,0.45 110.44,1.32 111.03,2.52C115.23,10.97 119.46,19.4 123.66,27.85C125.12,30.78 123.86,32.9 120.56,32.96C116.36,33.03 112.17,32.98 107.97,32.98ZM108.02,26.65C110.43,26.65 112.84,26.64 115.26,26.66C115.95,26.66 116.19,26.49 115.84,25.79C113.43,21 111.04,16.2 108.64,11.4C108.52,11.15 108.45,10.78 108.11,10.77C107.76,10.76 107.7,11.14 107.58,11.39C105.18,16.09 102.8,20.81 100.38,25.5C99.85,26.53 100.21,26.68 101.17,26.67C103.45,26.62 105.74,26.65 108.02,26.65Z" style="fill:rgb(40,40,40);fill-rule:nonzero;"/>
        <path d="M63.12,16.59L63.12,3.99C63.12,2.62 63.47,1.43 64.8,0.76C65.86,0.23 66.89,0.36 67.87,1.01C74.41,5.37 80.96,9.71 87.48,14.09C89.62,15.53 89.52,17.84 87.25,19.39C83.23,22.13 79.17,24.81 75.12,27.51C72.8,29.06 70.51,30.63 68.16,32.13C65.54,33.8 63.19,32.55 63.14,29.43C63.08,25.15 63.12,20.87 63.12,16.59ZM69.45,9.3C69.45,14.14 69.44,18.65 69.46,23.16C69.46,23.96 69.93,23.64 70.28,23.4C73.39,21.34 76.5,19.26 79.61,17.2C80.13,16.85 80.35,16.55 79.68,16.11C76.36,13.93 73.06,11.71 69.45,9.3Z" style="fill:rgb(40,40,40);fill-rule:nonzero;"/>
        <path d="M145.4,0.95C146.66,0.94 147.55,1.54 148.09,2.64C148.62,3.72 148.37,5.09 147.49,5.98C146.63,6.86 145.48,7.3 144.45,7.92C142.81,8.9 141.15,9.85 139.46,10.76C138.68,11.18 138.5,11.48 139.24,12.19C142.32,15.16 145.37,18.17 148.4,21.21C150.25,23.07 150.03,25.16 147.76,26.49C143.99,28.7 140.18,30.82 136.35,32.92C134.57,33.9 132.96,33.45 132.04,31.88C131.15,30.36 131.64,28.74 133.42,27.68C135.74,26.3 138.1,24.98 140.47,23.68C141.35,23.2 141.5,22.82 140.71,22.05C137.73,19.15 134.8,16.2 131.87,13.25C129.69,11.06 129.96,9.19 132.65,7.66C136.19,5.64 139.74,3.63 143.28,1.61C143.95,1.24 144.63,0.97 145.4,0.95Z" style="fill:rgb(40,40,40);fill-rule:nonzero;"/>
        <path d="M46.78,16.73L46.78,3.88C46.78,2.03 47.86,0.79 49.57,0.68C51.44,0.56 52.65,1.57 52.9,3.46C52.94,3.75 52.93,4.04 52.93,4.33C52.93,12.44 52.93,20.55 52.92,28.66C52.92,29.16 52.91,29.66 52.81,30.15C52.47,31.79 51.14,32.83 49.61,32.7C47.93,32.56 46.86,31.4 46.85,29.59C46.83,25.31 46.84,21.02 46.84,16.74C46.82,16.73 46.8,16.73 46.78,16.73Z" style="fill:rgb(40,40,40);fill-rule:nonzero;"/>
    </g>
</svg>
